icons/android.svg

<svg xmlns="http://www.w3.org/2000/svg" viewBox="0 0 32 32">
  <rect x="2" y="12" width="4" height="10" rx="2" style="fill: #8bc34a"/>
  <rect x="26" y="12" width="4" height="10" rx="2" style="fill: #8bc34a"/>
  <rect x="8" y="12" width="16" height="12" style="fill: #8bc34a"/>
  <path d="M10,24h4a0,0,0,0,1,0,0v4a2,2,0,0,1-2,2h0a2,2,0,0,1-2-2V24A0,0,0,0,1,10,24Z" style="fill: #8bc34a"/>
  <path d="M18,24h4a0,0,0,0,1,0,0v4a2,2,0,0,1-2,2h0a2,2,0,0,1-2-2V24A0,0,0,0,1,18,24Z" style="fill: #8bc34a"/>
  <path d="M21.545,4.24146,23.6651,2.12134A1,1,0,0,0,22.25085.70709L19.92468,3.03326a7.97028,7.97028,0,0,0-7.84936,0L9.74915.70709A1,1,0,1,0,8.3349,2.12134L10.455,4.24146A7.97053,7.97053,0,0,0,8,10H24A7.97053,7.97053,0,0,0,21.545,4.24146ZM14,8H12V6h2Zm6,0H18V6h2Z" style="fill: #8bc34a"/>
</svg>

<svg xmlns="http://www.w3.org/2000/svg" viewBox="0 0 32 32"><rect width="4" height="10" x="2" y="12" fill="#8bc34a" rx="2"/><rect width="4" height="10" x="26" y="12" fill="#8bc34a" rx="2"/><path fill="#8bc34a" d="M8 12h16v12H8zm2 12h4v4a2 2 0 0 1-2 2 2 2 0 0 1-2-2v-4Zm8 0h4v4a2 2 0 0 1-2 2 2 2 0 0 1-2-2v-4Zm3.545-19.759 2.12-2.12A1 1 0 0 0 22.251.707l-2.326 2.326a7.97 7.97 0 0 0-7.85 0L9.75.707a1 1 0 1 0-1.414 1.414l2.12 2.12A7.97 7.97 0 0 0 8 10h16a7.97 7.97 0 0 0-2.455-5.759ZM14 8h-2V6h2Zm6 0h-2V6h2Z"/></svg>
